X:330
L:1/8
Q:3/8=110
M:6/8
K:Bb
 B,2 C D2 E | F3 (Bcd) | cdB ABG | FGE DCB, | B,2 C D2 E | F3 Bcd | cdB ABG | F3 F3 :: F2 F FG_A | 
 GFE E3 | G2 G GAB | AGF F3 | c2 c cde | dcB gfe | dcB FBA | BFD B,3 :|

